svg/flickr-square.svg

<svg xmlns="http://www.w3.org/2000/svg" viewBox="0 0 64 64" enable-background="new 0 0 64 64"><style type="text/css">.st0{fill:#343434;}</style><title>flickr-square</title><desc>Created with Sketch.</desc><path class="st0" d="M60 0h-56c-2.2 0-4 1.8-4 4v56c0 2.2 1.8 4 4 4h56c2.2 0 4-1.8 4-4v-56c0-2.2-1.8-4-4-4zm-39 41c-5 0-9-4-9-9s4-9 9-9 9 4 9 9-4 9-9 9zm22 0c-5 0-9-4-9-9s4-9 9-9 9 4 9 9-4 9-9 9z"/></svg>

<?xml version="1.0" encoding="utf-8"?>
<!-- Generator: Adobe Illustrator 21.0.0, SVG Export Plug-In . SVG Version: 6.00 Build 0)  -->
<svg version="1.1" id="Layer_1" xmlns="http://www.w3.org/2000/svg" xmlns:xlink="http://www.w3.org/1999/xlink" x="0px" y="0px"
	 viewBox="0 0 64 64" style="enable-background:new 0 0 64 64;" xml:space="preserve">
<style type="text/css">
	.st0{fill:#343434;}
</style>
<title>flickr-square</title>
<desc>Created with Sketch.</desc>
<path class="st0" d="M60,0H4C1.8,0,0,1.8,0,4v56c0,2.2,1.8,4,4,4h56c2.2,0,4-1.8,4-4V4C64,1.8,62.2,0,60,0z M21,41c-5,0-9-4-9-9
	c0-5,4-9,9-9s9,4,9,9C30,37,26,41,21,41z M43,41c-5,0-9-4-9-9c0-5,4-9,9-9s9,4,9,9C52,37,48,41,43,41z"/>
</svg>
